X: 152
T: Cantantibus organis – Andantino
C: Franciszek Walczyński
%%abc-version 2.0
%%abcx-abcm2ps-target-version 5.9.1 (29 Sep 2008)
%%abc-creator hum2abc beta
%%abcx-conversion-date 2021/10/04 07:38:41
%%abc-edited-by Andrzej Borzym
%%abc-edited-by Anastazja Marusiak
%%abcx-initial-encoding-date 2021-07-28
%%humdrum-veritas 4023728604
%%humdrum-veritas-data 1620322841
%%linebreak <none>
%%barnumbers 0
L: 1/8
M: 6/8
N: Derived from pl-kozmzk--mzk-m-346--054_walczynski-franciszek--cantantibus-organis-andantino.krn
Q: "Andantino."
%%staves {1 2}
V: 1 clef=treble
V: 2 clef=bass
K: Ab
[V:1] AGA BAG & C6- | 
[V:2] F,=E,F, G,F,E, | 
[V:1] A2Bc3 & C2F=E3 | 
[V:2] F,2D,C,2B,, | 
[V:1] c=Bc d_BG & F6- | 
[V:2] A,,2>B,,2D,B,, | 
[V:1] A!accent!G2F3 & F2=EF3 | 
[V:2] C,3F,3 | 
[V:1] BABc2e & GFGA3- | 
[V:2] E,2>A,,2E,C, | 
[V:1] dB2A3 & A2GA3 | 
[V:2] B,,E,2A,,E,A, | 
[V:1] e=de fe_d & A6- | 
[V:2] C=B,C D!accent!F2 | 
[V:1] cB2A!fermata!G2 & A2GF2!fermata!=E | 
[V:2] E2D!fermata!C3 | 
[V:1] AGA BAG & C6- | 
[V:2] F,=E,F, G,F,E, | 
[V:1] A2Bc3 & C2F=E3 | 
[V:2] F,2D,C,2B,, | 
[V:1] c=Bc d_BG & F6- | 
[V:2] A,,2>B,,2D,B,, | 
[V:1] A!accent!G2F3 & F2=E FG,A, | 
[V:2] C,3D,3 | 
[V:1] F3-F2=E | 
[V:2] DB,G, A,G,B, & B,,D,B,,C,3 | 
[V:1] !fermata!F6 |]  
[V:2] A,6 & !fermata!F,,6 |]  


